X: 1630
T: The Merry Soldier
M:C|
L:1/8
B:O'Neills 1630
N:"collected by F. O'Neill"
Z:Transcribed by Nick Terhorst, nickte@microsoft.com
N: Fixed staff breaks [jc]
N: Fixed line wrapping [jc]
K:G
Bc|d^cdB dgfe|dcBc dgfe|dBdB edcB|c2A2 A2 Bc|
|d^cdB dgfe|dcBc dgfe|decd BGAF|D2G2G2:|
|:Bc|dcBc d2 ed|cBABc2dc|BGBG cBAG|FGAF D2 Bc|
|dcBc d2 ed|cBABc2 dc|BgGB AcFA|D2G2G2:|


